X: 2081
T: MARQUIS OF QUEENSBERRY
C:
Q: "Reel."
R: Reel.
%R: reel
N: This is version 2, for ABC software that understands voice overlays.
B: James Kerr "Merry Melodies" v.2 p.11 #81
Z: 2016 John Chambers <jc:trillian.mit.edu>
M: C
L: 1/8
K: C
uf |\
ec c/c/c c2ec | fedc Bagf |\
ec c/c/c c2ac | BGAB c3 ::\
uG |\
EFGE F2(Ac) | BcdB c2(eg) |
afaf gedc | BGAB c3G |\
EFGE FG(Ac) | BcdB cd(eg) |\
afaf gedc | BGAB cag |]
